icons/chevrons-in-vertical.svg

<svg xmlns="http://www.w3.org/2000/svg" width="24" height="24" viewBox="0 0 24 24">
  <path d="M11.3871006,14.2097046 C11.7793918,13.9046797 12.3466228,13.9324093 12.7071068,14.2928932 L12.7071068,14.2928932 L18.7071068,20.2928932 L18.7902954,20.3871006 C19.0953203,20.7793918 19.0675907,21.3466228 18.7071068,21.7071068 L18.7071068,21.7071068 L18.6128994,21.7902954 C18.2206082,22.0953203 17.6533772,22.0675907 17.2928932,21.7071068 L17.2928932,21.7071068 L12,16.415 L6.70710678,21.7071068 L6.61289944,21.7902954 C6.22060824,22.0953203 5.65337718,22.0675907 5.29289322,21.7071068 C4.90236893,21.3165825 4.90236893,20.6834175 5.29289322,20.2928932 L5.29289322,20.2928932 L11.2928932,14.2928932 Z M5.38710056,2.20970461 C5.77939176,1.90467972 6.34662282,1.93240926 6.70710678,2.29289322 L6.70710678,2.29289322 L12,7.585 L17.2928932,2.29289322 L17.3871006,2.20970461 C17.7793918,1.90467972 18.3466228,1.93240926 18.7071068,2.29289322 C19.0976311,2.68341751 19.0976311,3.31658249 18.7071068,3.70710678 L18.7071068,3.70710678 L12.7071068,9.70710678 L12.6128994,9.79029539 C12.2206082,10.0953203 11.6533772,10.0675907 11.2928932,9.70710678 L11.2928932,9.70710678 L5.29289322,3.70710678 L5.20970461,3.61289944 C4.90467972,3.22060824 4.93240926,2.65337718 5.29289322,2.29289322 L5.29289322,2.29289322 Z"/>
</svg>

<svg xmlns="http://www.w3.org/2000/svg" viewBox="0 0 24 24">
  <path d="M11.39 14.21a1 1 0 0 1 1.32.08l6 6 .08.1a1 1 0 0 1-.08 1.32l-.1.08a1 1 0 0 1-1.32-.08L12 16.4l-5.3 5.3-.09.08a1 1 0 0 1-1.32-1.5l6-6zm-6-12a1 1 0 0 1 1.32.08L12 7.6l5.3-5.3.09-.08a1 1 0 0 1 1.32 1.5l-6 6-.1.08a1 1 0 0 1-1.32-.08l-6-6-.08-.1a1 1 0 0 1 .08-1.32z"/>
</svg>
